src/assets/images/no-filled-star-icon.svg

<svg width="34" height="34" viewBox="0 0 34 34" fill="none" xmlns="http://www.w3.org/2000/svg">
<g clip-path="url(#clip0_12150_3237)">
<path d="M16.9094 2.37585C16.9453 2.29893 17.0547 2.29893 17.0906 2.37585L21.1136 10.9916C21.269 11.3244 21.5802 11.5577 21.9433 11.6135L30.9917 13.0032C31.0719 13.0155 31.1048 13.1134 31.0482 13.1717L24.4597 19.9597C24.2174 20.2093 24.1075 20.5588 24.1632 20.9021L25.7128 30.4513C25.7261 30.5338 25.6385 30.5953 25.5655 30.5547L17.5343 26.092C17.202 25.9073 16.798 25.9073 16.4657 26.092L8.43452 30.5547C8.3615 30.5953 8.27386 30.5338 8.28724 30.4513L9.8368 20.9021C9.89251 20.5587 9.78257 20.2093 9.54033 19.9597L2.95177 13.1717C2.89519 13.1134 2.92805 13.0155 3.00835 13.0032L12.0567 11.6135C12.4198 11.5577 12.731 11.3244 12.8864 10.9916L16.9094 2.37585Z" fill="black" fill-opacity="0.2" stroke="white"/>
</g>
<defs>
<clipPath id="clip0_12150_3237">
<rect width="34" height="34" fill="white"/>
</clipPath>
</defs>
</svg>

<svg xmlns="http://www.w3.org/2000/svg" width="34" height="34" fill="none"><g clip-path="url(#a)"><path fill="#000" fill-opacity=".2" stroke="#fff" d="M16.91 2.376a.1.1 0 0 1 .18 0l4.024 8.616a1.1 1.1 0 0 0 .83.621l9.048 1.39a.1.1 0 0 1 .056.169L24.46 19.96a1.1 1.1 0 0 0-.297.942l1.55 9.55a.1.1 0 0 1-.148.103l-8.03-4.463a1.1 1.1 0 0 0-1.07 0l-8.03 4.463a.1.1 0 0 1-.148-.104l1.55-9.549a1.1 1.1 0 0 0-.297-.942l-6.588-6.788a.1.1 0 0 1 .056-.169l9.049-1.39a1.1 1.1 0 0 0 .83-.621l4.022-8.616Z"/></g><defs><clipPath id="a"><path fill="#fff" d="M0 0h34v34H0z"/></clipPath></defs></svg>
